teeny/solid/otp.svg

<svg width="15" height="15" viewBox="0 0 15 15" fill="none" xmlns="http://www.w3.org/2000/svg">
<path d="M3.5 6C3.22386 6 3 6.22386 3 6.5V8.5C3 8.77614 3.22386 9 3.5 9C3.77614 9 4 8.77614 4 8.5V6.5C4 6.22386 3.77614 6 3.5 6Z" fill="black"/>
<path d="M11 7H11.5C11.7761 7 12 6.77614 12 6.5C12 6.22386 11.7761 6 11.5 6H11V7Z" fill="black"/>
<path fill-rule="evenodd" clip-rule="evenodd" d="M0 1.5C0 0.671573 0.671573 0 1.5 0H13.5C14.3284 0 15 0.671573 15 1.5V13.5C15 14.3284 14.3284 15 13.5 15H1.5C0.671573 15 0 14.3284 0 13.5V1.5ZM2 6.5C2 5.67157 2.67157 5 3.5 5C4.32843 5 5 5.67157 5 6.5V8.5C5 9.32843 4.32843 10 3.5 10C2.67157 10 2 9.32843 2 8.5V6.5ZM7 6H6V5H9V6H8V10H7V6ZM10 5H11.5C12.3284 5 13 5.67157 13 6.5C13 7.32843 12.3284 8 11.5 8H11V10H10V5Z" fill="black"/>
</svg>

<svg viewBox="0 0 15 15" xmlns="http://www.w3.org/2000/svg"><g><path d="M3.5 6c-.28 0-.5.22-.5.5v2c0 .27.22.5.5.5 .27 0 .5-.23.5-.5v-2c0-.28-.23-.5-.5-.5Z"/><path d="M11 7h.5c.27 0 .5-.23.5-.5 0-.28-.23-.5-.5-.5H11v1Z"/><path fill-rule="evenodd" d="M0 1.5C0 .67.67 0 1.5 0h12c.82 0 1.5.67 1.5 1.5v12c0 .82-.68 1.5-1.5 1.5h-12C.67 15 0 14.32 0 13.5v-12Zm2 5C2 5.67 2.67 5 3.5 5 4.32 5 5 5.67 5 6.5v2c0 .82-.68 1.5-1.5 1.5C2.67 10 2 9.32 2 8.5v-2ZM7 6H6V5h3v1H8v4H7V6Zm3-1h1.5c.82 0 1.5.67 1.5 1.5 0 .82-.68 1.5-1.5 1.5H11v2h-1V5Z"/></g></svg>
